assets/images/flags/4x3/tv.svg

<?xml version="1.0" encoding="UTF-8" standalone="no"?>
<!-- Created with Sodipodi ("http://www.sodipodi.com/") -->
<svg id="svg2498" xmlns:rdf="http://www.w3.org/1999/02/22-rdf-syntax-ns#" xmlns="http://www.w3.org/2000/svg" height="480" width="640" version="1.1" xmlns:cc="http://creativecommons.org/ns#" xmlns:dc="http://purl.org/dc/elements/1.1/">
 <metadata id="metadata4144">
  <rdf:RDF>
   <cc:Work rdf:about="">
    <dc:format>image/svg+xml</dc:format>
    <dc:type rdf:resource="http://purl.org/dc/dcmitype/StillImage"/>
   </cc:Work>
  </rdf:RDF>
 </metadata>
 <defs id="defs2500">
  <clipPath id="clipPath5023" clipPathUnits="userSpaceOnUse">
   <rect id="rect5025" fill-opacity="0.67" height="480" width="640" y="0" x="0"/>
  </clipPath>
 </defs>
 <g id="flag" clip-path="url(#clipPath5023)">
  <g id="g5547" fill-rule="evenodd" transform="matrix(.64508 0 0 .92059 0 23.331)" stroke-width="1pt" fill="#009fca">
   <rect id="rect5549" height="515.87" width="486.16" y="-19.81" x="505.97"/>
   <rect id="rect5551" ry="0" height="521.41" width="523.49" y="-25.343" x="-7.1124e-17"/>
  </g>
  <g id="g3907" transform="scale(1.6543)">
   <rect id="rect1310" fill-rule="evenodd" height="118.84" width="239.29" y="5.5043e-7" x=".0099678" fill="#fff"/>
   <path id="path549" d="m0.0099681 0.00033452-0.0099681 8.9195 57.103 29.341 21.485 0.622-78.578-38.883z" fill="#c00"/>
   <path id="path551" d="m24.459 0.00033452 69.228 36.161v-36.161h-69.228z" fill="#006"/>
   <path id="path552" fill="#c00" d="m102.92 0.00033452v46.163h-102.91v26.379h102.91v46.163h31.666v-46.163h102.91v-26.379h-102.91v-46.163h-31.666z"/>
   <path id="path554" d="m143.82 0.00033452v34.073l67.73-33.809-67.73-0.26367z" fill="#006"/>
   <path id="path555" d="m145.96 37.788 19.05-0.153 74-37.371-19.64 0.32017-73.41 37.204z" fill="#c00"/>
   <path id="path700" d="m0.0099681 80.237v25.28l47.498-25.02-47.498-0.263z" fill="#006"/>
   <path id="path701" d="m182.91 81.28-19.8-0.15376 74.638 37.162-0.49099-8.502-54.346-28.506zm-164.35 37.63 69.984-36.739-18.381 0.121-70.151 36.568" fill="#c00"/>
  </g>
  <path id="path556" d="m394.55 17.271-93.502 46.368 92.257 0.34526v69.093h-78.575l77.848 42.181 1.1427 21.458-41.581-0.49684-113.8-55.869v56.366h-82.939v-56.366l-106.75 56.215-48.214 0.15137v196.37h785.75v-392.74l-390.82-0.33945m-394.95 22.164-0.41463 40.783 82.722 1.037-82.307-41.82z" fill="#006"/>
  <g id="g3304" fill-rule="evenodd" transform="matrix(.79241 0 0 .79977 .0059867 .00029105)" fill="#009fca">
   <rect id="rect3302" height="496.06" width="496.06" y="-.000015260" x="496.06"/>
   <rect id="rect3303" rx="0" ry="0" height="251.45" width="525.79" y="244.61" x="-2.3032"/>
  </g>
  <g id="g5553" fill-rule="evenodd" transform="matrix(1.5189 0 0 1.5189 -136.22 80.582)" stroke-width="1pt" fill="#fff40d">
   <polygon id="polygon136" transform="matrix(.25628 0 0 .24119 337.93 -50.489)" points="555.61 324.28 626.44 324.23 569.1 365.81 591.04 433.16 591.04 433.16 533.77 391.48 476.5 433.15 498.45 365.81 441.12 324.21 511.95 324.28 533.78 256.9"/>
   <polygon id="polygon3314" transform="matrix(.25628 0 0 .24119 292.37 79.065)" points="555.61 324.28 626.44 324.23 569.1 365.81 591.04 433.16 591.04 433.16 533.77 391.48 476.5 433.15 498.45 365.81 441.12 324.21 511.95 324.28 533.78 256.9"/>
   <polygon id="polygon3315" transform="matrix(.25628 0 0 .24119 337.93 49.738)" points="555.61 324.28 626.44 324.23 569.1 365.81 591.04 433.16 591.04 433.16 533.77 391.48 476.5 433.15 498.45 365.81 441.12 324.21 511.95 324.28 533.78 256.9"/>
   <polygon id="polygon3317" transform="matrix(.25628 0 0 .24119 142.03 143.7)" points="555.61 324.28 626.44 324.23 569.1 365.81 591.04 433.16 591.04 433.16 533.77 391.48 476.5 433.15 498.45 365.81 441.12 324.21 511.95 324.28 533.78 256.9"/>
   <polygon id="polygon3319" transform="matrix(-.25628 0 0 -.24119 468.01 249.77)" points="555.61 324.28 626.44 324.23 569.1 365.81 591.04 433.16 591.04 433.16 533.77 391.48 476.5 433.15 498.45 365.81 441.12 324.21 511.95 324.28 533.78 256.9"/>
   <polygon id="polygon3320" transform="matrix(-.25628 0 0 -.24119 521.54 175.74)" points="555.61 324.28 626.44 324.23 569.1 365.81 591.04 433.16 591.04 433.16 533.77 391.48 476.5 433.15 498.45 365.81 441.12 324.21 511.95 324.28 533.78 256.9"/>
   <polygon id="polygon3321" transform="matrix(-.25628 0 0 -.24119 566.53 160.36)" points="555.61 324.28 626.44 324.23 569.1 365.81 591.04 433.16 591.04 433.16 533.77 391.48 476.5 433.15 498.45 365.81 441.12 324.21 511.95 324.28 533.78 256.9"/>
   <polygon id="polygon3322" transform="matrix(-.25628 0 0 -.24119 521.54 288.49)" points="555.61 324.28 626.44 324.23 569.1 365.81 591.04 433.16 591.04 433.16 533.77 391.48 476.5 433.15 498.45 365.81 441.12 324.21 511.95 324.28 533.78 256.9"/>
   <polygon id="polygon3323" transform="matrix(-.25628 0 0 -.24119 468.01 301.59)" points="555.61 324.28 626.44 324.23 569.1 365.81 591.04 433.16 591.04 433.16 533.77 391.48 476.5 433.15 498.45 365.81 441.12 324.21 511.95 324.28 533.78 256.9"/>
  </g>
 </g>
</svg>

<svg id="svg2498" xmlns="http://www.w3.org/2000/svg" height="480" width="640" version="1.1"><defs id="defs2500"><clipPath id="clipPath5023" clipPathUnits="userSpaceOnUse"><path id="rect5025" fill-opacity=".67" d="M0 0h640v480H0z"/></clipPath></defs><g id="flag" clip-path="url(#clipPath5023)"><g id="g5547" fill-rule="evenodd" transform="matrix(.64508 0 0 .92059 0 23.331)" stroke-width="1pt" fill="#009fca"><path id="rect5549" d="M505.97-19.81h486.16v515.87H505.97z"/><rect id="rect5551" ry="0" height="521.41" width="523.49" y="-25.343" x="0"/></g><g id="g3907" transform="scale(1.6543)"><path id="rect1310" fill-rule="evenodd" fill="#fff" d="M.01 0H239.3v118.84H.01z"/><path id="path549" d="M.01 0L0 8.92l57.103 29.34 21.485.623L.01 0z" fill="#c00"/><path id="path551" d="M24.459 0l69.228 36.161V.001H24.459z" fill="#006"/><path id="path552" fill="#c00" d="M102.92 0v46.163H.01v26.38h102.91v46.162h31.666V72.542h102.91V46.163h-102.91V0H102.92z"/><path id="path554" d="M143.82 0v34.073L211.55.264 143.82.001z" fill="#006"/><path id="path555" d="M145.96 37.788l19.05-.153 74-37.371-19.64.32-73.41 37.204z" fill="#c00"/><path id="path700" d="M.01 80.237v25.28l47.498-25.02L.01 80.234z" fill="#006"/><path id="path701" d="M182.91 81.28l-19.8-.154 74.638 37.162-.491-8.502-54.346-28.506zM18.56 118.91l69.984-36.739-18.381.121L.012 118.86" fill="#c00"/></g><path id="path556" d="M394.55 17.271l-93.502 46.368 92.257.345v69.093H314.73l77.848 42.181 1.143 21.458-41.581-.497-113.8-55.869v56.366H155.4V140.35L48.65 196.565l-48.213.152v196.37h785.75V.347l-390.82-.34M.417 22.171L.002 62.954l82.722 1.037L.417 22.171z" fill="#006"/><g id="g3304" fill-rule="evenodd" transform="matrix(.79241 0 0 .79977 .006 0)" fill="#009fca"><path id="rect3302" d="M496.06 0h496.06v496.06H496.06z"/><rect id="rect3303" rx="0" ry="0" height="251.45" width="525.79" y="244.61" x="-2.303"/></g><g id="g5553" fill-rule="evenodd" transform="translate(-136.22 80.582) scale(1.5189)" stroke-width="1pt" fill="#fff40d"><path id="polygon136" transform="matrix(.25628 0 0 .24119 337.93 -50.489)" d="M555.61 324.28l70.83-.05-57.34 41.58 21.94 67.35-57.27-41.68-57.27 41.67 21.95-67.34-57.33-41.6 70.83.07 21.83-67.38z"/><path id="polygon3314" transform="matrix(.25628 0 0 .24119 292.37 79.065)" d="M555.61 324.28l70.83-.05-57.34 41.58 21.94 67.35-57.27-41.68-57.27 41.67 21.95-67.34-57.33-41.6 70.83.07 21.83-67.38z"/><path id="polygon3315" transform="matrix(.25628 0 0 .24119 337.93 49.738)" d="M555.61 324.28l70.83-.05-57.34 41.58 21.94 67.35-57.27-41.68-57.27 41.67 21.95-67.34-57.33-41.6 70.83.07 21.83-67.38z"/><path id="polygon3317" transform="matrix(.25628 0 0 .24119 142.03 143.7)" d="M555.61 324.28l70.83-.05-57.34 41.58 21.94 67.35-57.27-41.68-57.27 41.67 21.95-67.34-57.33-41.6 70.83.07 21.83-67.38z"/><path id="polygon3319" transform="matrix(-.25628 0 0 -.24119 468.01 249.77)" d="M555.61 324.28l70.83-.05-57.34 41.58 21.94 67.35-57.27-41.68-57.27 41.67 21.95-67.34-57.33-41.6 70.83.07 21.83-67.38z"/><path id="polygon3320" transform="matrix(-.25628 0 0 -.24119 521.54 175.74)" d="M555.61 324.28l70.83-.05-57.34 41.58 21.94 67.35-57.27-41.68-57.27 41.67 21.95-67.34-57.33-41.6 70.83.07 21.83-67.38z"/><path id="polygon3321" transform="matrix(-.25628 0 0 -.24119 566.53 160.36)" d="M555.61 324.28l70.83-.05-57.34 41.58 21.94 67.35-57.27-41.68-57.27 41.67 21.95-67.34-57.33-41.6 70.83.07 21.83-67.38z"/><path id="polygon3322" transform="matrix(-.25628 0 0 -.24119 521.54 288.49)" d="M555.61 324.28l70.83-.05-57.34 41.58 21.94 67.35-57.27-41.68-57.27 41.67 21.95-67.34-57.33-41.6 70.83.07 21.83-67.38z"/><path id="polygon3323" transform="matrix(-.25628 0 0 -.24119 468.01 301.59)" d="M555.61 324.28l70.83-.05-57.34 41.58 21.94 67.35-57.27-41.68-57.27 41.67 21.95-67.34-57.33-41.6 70.83.07 21.83-67.38z"/></g></g></svg>
